!!!OTL: Rambling Shoemaker
!!!ONM: 83.
**kern
*clefG2
*k[f#c#g#]
*A:
*M6/8
*MM100
{8e
=1
4e
8f#
8e
4d
=2
16c#
16c#
4A
4r
8B
=3
(4B
8c#)
4A
8G#
=4
4.A
4r}
{8e
=5
8e
4e
4e
8a
=6
4b
[8cc#
4cc#]
16a
16a
=7
4a
8a
4g#
8f#
=8
4.e
4r}
{8e
=9
8e
4e
4e
8a
=10
8b
[4cc#
4cc#]
8a
=11
4a
8a
4a
8f#
=12
4.e
4r}
{8e
=13
4f#
8f#
4f#
8e
=14
(8f#
8g#)
[8e
4e]
8A
=15
8B
4c#
4A
8G#
=16
[4.A
8A]
8r}
==
*-
!!!CNT: Folksongs of Maritime Canada
!!!MRD: 1928///-1932///
!!!OCL: Helen Creighton
!!!YOR: Songs and Ballads from Nova Scotia
!!!PPR: J.M. Dent & Sons, Limited
!!!PPP: Toronto, Canada
!!!PDT: 1932///
!!!reprint: Dover Publications, 1992: ISBN 0-486-21703-5
!!!ENC1: Craig Stuart Sapp (music and bibliographic data)                       
!!!ENC2: Marcus Pearce (phrase markings and key designations)                   
!!!ENC3: Darrell Conklin (phrase markings and key designations)   
!!!END: 2002/04/10/
!!!EEV: 2004/06/05
!!!MPN: Mr. Ben Henneberry
!!!PPG: 179
!!!EFL: 84/152
!!!ARE: Canada; Nova Scotia
!!!verses: 9
!!!VTS: 3291807537
